X:2
R:Polska
Z:Nils L, 2007-12-14
O:efter Byss-Kalle, Uppland
M:3/4
L:1/16
K:D
A2 | d2>f2 f2d2 d2ef | (gf)ef g2e2 (fe)fg | a2>f2 f2d2 d2ef | g2eg e2ce c2A2 | 
     d2f2 f2d2 d2ef  | (gf)ef g2e2 (fe)fg | a2>f2 d2b2 g2e2 | (dc)Bc e4 d4  :| 
(:musicend:)

(:music:)
